X:177
T:O'Reilly's Greyhound
B:Terry "Cuz" Teahan "Sliabh Luachra on Parade" 1980
Z:Patrick Cavanagh
M:4/4
L:1/8
R:Reel
K:G
B/c/d |: edBA G2G2 | B/c/d ef g2fg | edBA G2GB | d2ed BAA2 :| 
| eaag baag | eggg egg2 | eaag baag | e2dB BAA2 | 
eaag baag | edef g2ga | bgaf gfed | B/c/d ef g2g2 || 

